X:6441
T:Teatotaller, The
T:Temperance reel, The
O:england
R:reel
M:C|
K:G
G2GF GABc|dBge dBAc|BEED EFGA|BGEF GFED|
G2GF GABc|dBge dBAc|BEED EFGA|BGEF G4:|
|:Beed e2ef|geaf gfed|Bdd^c d2de|fdfa gfed|
Beed e2ef|geaf gfed|BEED EFGA|BGEF G4:|
"Variations:"
DGGF GABc|dgeB dBAc|BEED EFGA|BGAF GFEF|
DGGF GABc|dgeB dBAc|BEED EFGA|BGAF G4:|
|:Beed e2ef|gaaf gfed|Bdd^c d2de|fdfa gfed|
Beed e2ef|gaaf gfed|BEED EFGA|BGAF G4:|


